X:1
T: A Girl's Best Friend
N:
C:Tune is "Wandering Willie" (trad.)
S:
A:
O:
R:
M:3/4
K:G
I:speed 150
%W: A1
% voice 1 (1 lines, 23 notes)
K:G
M:3/4
L:1/16
d6 c2 B2 A2 |G6 A2 G4 |A4 G4 A4 |B4 e8 |d6 c2 B2 A2 |G6 A2 B4 |B4 ^A4 B4 |E12 |
%W: A2
% voice 1 (1 lines, 23 notes)
d6 c2 B2 A2 |G6 A2 G4 |A4 G4 A4 |B4 e8 |d6 c2 B2 A2 |G6 A2 B4 |B4 ^A4 B4 |E12 |
%W: B1
% voice 1 (1 lines, 22 notes)
B4 e4 ^d4 |e6 f2 g4 |d6 e2 d2 c2 |B4 d8 |B4 e4 ^d4 |e6 f2 g4 |B4 ^A4 B4 |E12 |
%W: B2
% voice 1 (1 lines, 22 notes)
B4 e4 ^d4 |e6 f2 g4 |d6 e2 d2 c2 |B4 d8 |B4 e4 f4 |g6 a2 b4 |B4 ^A4 B4 |e12 ||
